packages/ui-icons/svg/Solid/comments-off.svg

<svg viewBox="0 0 1920 1920" version="1.1" xmlns="http://www.w3.org/2000/svg">
    <path d="M971.153351,416.337587 C1012.92433,667.183858 1228.43455,858.591238 1488.69314,858.591238 L1488.69314,858.591238 L1488.69314,1566.19708 L729.809921,1566.19708 L262.710555,1920 L262.710555,1566.19708 L1.64515022e-12,1566.19708 L2.28664911e-13,416.337587 Z M1689.50909,0 L1813.33333,125.069332 L1612.5349,327.886857 L1813.33333,530.704381 L1689.50909,655.773714 L1488.71066,452.956189 L1287.91222,655.773714 L1164.08798,530.704381 L1364.88642,327.886857 L1164.08798,125.069332 L1287.91222,0 L1488.71066,202.817524 L1689.50909,0 Z" stroke="none" stroke-width="1" fill-rule="evenodd"/>
</svg>

<svg viewBox="0 0 1920 1920" xmlns="http://www.w3.org/2000/svg">
    <path d="M971.153 416.338c41.771 250.846 257.282 442.253 517.54 442.253v707.606H729.81L262.71 1920v-353.803H0V416.337ZM1689.51 0l123.824 125.07-200.798 202.817 200.798 202.817-123.824 125.07-200.798-202.818-200.799 202.818-123.824-125.07 200.798-202.817-200.798-202.818L1287.912 0l200.799 202.818L1689.509 0Z" fill-rule="evenodd"/>
</svg>
